!!!OTL: MAG AUCH HEISS DAS SCHEIDEN BRENNEN
!!!ARE: Europa, Mitteleuropa, Deutschland, Frauenberg (Nahe)
!!!SCT: B0425
!!!YEM: Copyright 1995, estate of Helmut Schaffrath.
**kern
*ICvox
*Ivox
*M3/4
*k[b-e-a-]
*E-:
{8b-
8g
=1
4.cc
8b-
8a-
8g
=2
8.f
16a-
4g}
{8g
8b-
=3
8.ee-
16cc
4g
4an
=4
2b-}
{8b-
8g
=5
4.cc
8b-
8a-
8g
=6
8.f
16a-
4g}
{8f
8b-
=7
8b-
8an
4.dd
8cc
=8
2b-}
{8.dd
16cc
=9
4b-
4f
8g
8a-
=10
8.cc
16b-
4b-}
{8cc
8b-
=11
8.ee-
16g
4dd
4cc
=12
8.b-
16a-
4g}
==
!!!AGN: Liebes - Lied, Liebes - Lust
!!!ONB: ESAC (Essen Associative Code) Database: BOEHME
!!!AMT: simple triple
!!!AIN: vox
!!!EED: Helmut Schaffrath
!!!EEV: 1.0
*-
